SVG_Azure_Grouped/Data/Data Lake Analytics.svg

<?xml version="1.0" encoding="UTF-8" standalone="no"?>
<!-- Generated by Microsoft Visio, SVG Export Data Lake Analytics.svg Page-1 -->

<svg
   xmlns:dc="http://purl.org/dc/elements/1.1/"
   xmlns:cc="http://creativecommons.org/ns#"
   xmlns:rdf="http://www.w3.org/1999/02/22-rdf-syntax-ns#"
   xmlns:svg="http://www.w3.org/2000/svg"
   xmlns="http://www.w3.org/2000/svg"
   xmlns:sodipodi="http://sodipodi.sourceforge.net/DTD/sodipodi-0.dtd"
   xmlns:inkscape="http://www.inkscape.org/namespaces/inkscape"
   width="0.7825802in"
   height="0.78481561in"
   viewBox="0 0 56.345812 56.506675"
   xml:space="preserve"
   class="st5"
   version="1.1"
   id="svg34"
   sodipodi:docname="Data Lake Analytics.svg"
   style="font-size:12px;overflow:visible;color-interpolation-filters:sRGB;fill:none;fill-rule:evenodd;stroke-linecap:square;stroke-miterlimit:3"
   inkscape:version="0.92.5 (2060ec1f9f, 2020-04-08)"><metadata
   id="metadata40"><rdf:RDF><cc:Work
       rdf:about=""><dc:format>image/svg+xml</dc:format><dc:type
         rdf:resource="http://purl.org/dc/dcmitype/StillImage" /></cc:Work></rdf:RDF></metadata><defs
   id="defs38" /><sodipodi:namedview
   pagecolor="#ffffff"
   bordercolor="#666666"
   borderopacity="1"
   objecttolerance="10"
   gridtolerance="10"
   guidetolerance="10"
   inkscape:pageopacity="0"
   inkscape:pageshadow="2"
   inkscape:window-width="640"
   inkscape:window-height="480"
   id="namedview36"
   showgrid="false"
   inkscape:zoom="1.8314472"
   inkscape:cx="37.563245"
   inkscape:cy="19.069188"
   inkscape:window-x="0"
   inkscape:window-y="0"
   inkscape:window-maximized="0"
   inkscape:current-layer="svg34" />
	<style
   type="text/css"
   id="style2">
	<![CDATA[
		.st1 {fill:#a0a1a2;stroke:none;stroke-linecap:butt;stroke-width:6.12}
		.st2 {fill:#7a7a7a;stroke:none;stroke-linecap:butt;stroke-width:6.12}
		.st3 {fill:#ffffff;stroke:none;stroke-linecap:butt;stroke-width:6.12}
		.st4 {fill:#59b4d9;stroke:none;stroke-linecap:butt;stroke-width:6.12}
		.st5 {fill:none;fill-rule:evenodd;font-size:12px;overflow:visible;stroke-linecap:square;stroke-miterlimit:3}
	]]>
	</style>

	<g
   id="g32"
   transform="translate(-6.1199474,-6.1176148)">
		<title
   id="title4">Page-1</title>
		<g
   id="group19495-1"
   transform="translate(5.93671,-34.0157)">
			<title
   id="title6">Data Lake Analytics.19495</title>
			<g
   id="group19496-2">
				<title
   id="title8">Sheet.19496</title>
				<g
   id="shape19497-3"
   transform="translate(4.7338,-4.63491)">
					<title
   id="title10">Sheet.19497</title>
					<path
   d="M 42.04,96.64 H 5.13 C 2.31,96.64 0,94.33 0,91.5 V 54.48 c 0,-2.83 2.31,-5.15 5.13,-5.15 h 36.91 c 2.82,0 5.13,2.32 5.13,5.15 V 91.5 c 0,2.83 -2.31,5.14 -5.13,5.14 z M 5.13,52.73 c -0.96,0 -1.69,0.79 -1.69,1.69 v 37.02 c 0,0.97 0.79,1.7 1.69,1.7 h 36.91 c 0.96,0 1.69,-0.79 1.69,-1.7 V 54.42 c 0,-0.96 -0.79,-1.69 -1.69,-1.69 z"
   class="st1"
   id="path12"
   inkscape:connector-curvature="0"
   style="fill:#a0a1a2;stroke:none;stroke-width:6.11999989;stroke-linecap:butt" />
				</g>
				<g
   id="shape19498-5">
					<title
   id="title15">Sheet.19498</title>
					<path
   d="m 23.33,40.63 c -1.24,-0.57 -2.7,-0.68 -4,-0.17 -1.3,0.45 -2.37,1.41 -2.93,2.71 l -0.79,1.64 h 16.62 z m 32.86,18.71 c -0.46,-1.3 -1.41,-2.37 -2.71,-2.94 l -1.63,-0.79 v 16.73 l 4.17,-8.93 c 0.62,-1.3 0.67,-2.71 0.17,-4.07 z M 0.68,77.26 C 0.11,78.5 0,79.97 0.51,81.27 c 0.45,1.3 1.41,2.37 2.7,2.94 L 4.85,85 V 68.33 Z m 36.51,18.88 c 0.68,0.34 1.47,0.5 2.2,0.5 0.62,0 1.19,-0.11 1.81,-0.33 1.29,-0.46 2.36,-1.42 2.93,-2.72 l 0.78,-1.64 H 28.29 Z"
   class="st2"
   id="path17"
   inkscape:connector-curvature="0"
   style="fill:#7a7a7a;stroke:none;stroke-width:6.11999989;stroke-linecap:butt" />
				</g>
				<g
   id="shape19499-7"
   transform="translate(8.17144,-8.13936)">
					<title
   id="title20">Sheet.19499</title>
					<path
   d="M 1.69,56.23 C 0.73,56.23 0,57.02 0,57.93 v 37.02 c 0,0.96 0.79,1.69 1.69,1.69 H 38.6 c 0.96,0 1.69,-0.79 1.69,-1.69 V 57.93 c 0,-0.96 -0.79,-1.7 -1.69,-1.7 z"
   class="st3"
   id="path22"
   inkscape:connector-curvature="0"
   style="fill:#ffffff;stroke:none;stroke-width:6.11999989;stroke-linecap:butt" />
				</g>
				<g
   id="shape19500-9"
   transform="translate(19.6678,-13.6786)">
					<title
   id="title25">Sheet.19500</title>
					<path
   d="M 16.79,78.5 H 9.64 l 2.98,-10 c 0.06,-0.29 -0.05,-0.57 -0.28,-0.68 -0.05,-0.06 -0.17,-0.06 -0.22,-0.06 -0.17,0 -0.34,0.11 -0.45,0.23 L 0.11,84.89 C 0,85.06 0,85.28 0.06,85.45 c 0.11,0.17 0.28,0.29 0.5,0.29 H 7.5 L 4.4,95.91 c -0.06,0.28 0.05,0.57 0.28,0.68 0.05,0.05 0.17,0.05 0.22,0.05 0.17,0 0.34,-0.11 0.45,-0.22 L 17.24,79.35 c 0.06,-0.11 0.12,-0.23 0.12,-0.34 0,-0.28 -0.28,-0.51 -0.57,-0.51 z"
   class="st4"
   id="path27"
   inkscape:connector-curvature="0"
   style="fill:#59b4d9;stroke:none;stroke-width:6.11999989;stroke-linecap:butt" />
				</g>
			</g>
		</g>
	</g>
</svg>

<?xml version="1.0" encoding="UTF-8" standalone="no"?>
<!DOCTYPE svg PUBLIC "-//W3C//DTD SVG 1.1//EN" "http://www.w3.org/Graphics/SVG/1.1/DTD/svg11.dtd">
<!-- Generated by Microsoft Visio, SVG Export Data Lake Analytics.svg Page-1 -->
<svg xmlns="http://www.w3.org/2000/svg" xmlns:xlink="http://www.w3.org/1999/xlink" xmlns:ev="http://www.w3.org/2001/xml-events"
		width="0.952566in" height="1.34229in" viewBox="0 0 68.5848 96.6448" xml:space="preserve" color-interpolation-filters="sRGB"
		class="st5">
	<style type="text/css">
	<![CDATA[
		.st1 {fill:#a0a1a2;stroke:none;stroke-linecap:butt;stroke-width:6.12}
		.st2 {fill:#7a7a7a;stroke:none;stroke-linecap:butt;stroke-width:6.12}
		.st3 {fill:#ffffff;stroke:none;stroke-linecap:butt;stroke-width:6.12}
		.st4 {fill:#59b4d9;stroke:none;stroke-linecap:butt;stroke-width:6.12}
		.st5 {fill:none;fill-rule:evenodd;font-size:12px;overflow:visible;stroke-linecap:square;stroke-miterlimit:3}
	]]>
	</style>

	<g>
		<title>Page-1</title>
		<g id="group19046-1" transform="translate(5.93671,-34.0157)">
			<title>Data Lake Analytics.19046</title>
			<g id="group19047-2">
				<title>Sheet.19047</title>
				<g id="shape19048-3" transform="translate(4.7338,-4.63491)">
					<title>Sheet.19048</title>
					<path d="M42.04 96.64 L5.13 96.64 C2.31 96.64 0 94.33 0 91.5 L0 54.48 C0 51.65 2.31 49.33 5.13 49.33 L42.04 49.33
								 C44.86 49.33 47.17 51.65 47.17 54.48 L47.17 91.5 C47.17 94.33 44.86 96.64 42.04 96.64 ZM5.13 52.73
								 C4.17 52.73 3.44 53.52 3.44 54.42 L3.44 91.44 C3.44 92.41 4.23 93.14 5.13 93.14 L42.04 93.14 C43
								 93.14 43.73 92.35 43.73 91.44 L43.73 54.42 C43.73 53.46 42.94 52.73 42.04 52.73 L5.13 52.73 Z"
							class="st1"/>
				</g>
				<g id="shape19049-5">
					<title>Sheet.19049</title>
					<path d="M23.33 40.63 C22.09 40.06 20.63 39.95 19.33 40.46 C18.03 40.91 16.96 41.87 16.4 43.17 L15.61 44.81 L32.23
								 44.81 L23.33 40.63 ZM56.19 59.34 C55.73 58.04 54.78 56.97 53.48 56.4 L51.85 55.61 L51.85 72.34 L56.02
								 63.41 C56.64 62.11 56.69 60.7 56.19 59.34 ZM0.68 77.26 C0.11 78.5 0 79.97 0.51 81.27 C0.96 82.57
								 1.92 83.64 3.21 84.21 L4.85 85 L4.85 68.33 L0.68 77.26 ZM37.19 96.14 C37.87 96.48 38.66 96.64 39.39
								 96.64 C40.01 96.64 40.58 96.53 41.2 96.31 C42.49 95.85 43.56 94.89 44.13 93.59 L44.91 91.95 L28.29
								 91.95 L37.19 96.14 Z" class="st2"/>
				</g>
				<g id="shape19050-7" transform="translate(8.17144,-8.13936)">
					<title>Sheet.19050</title>
					<path d="M1.69 56.23 C0.73 56.23 0 57.02 0 57.93 L0 94.95 C0 95.91 0.79 96.64 1.69 96.64 L38.6 96.64 C39.56 96.64
								 40.29 95.85 40.29 94.95 L40.29 57.93 C40.29 56.97 39.5 56.23 38.6 56.23 L1.69 56.23 Z" class="st3"/>
				</g>
				<g id="shape19051-9" transform="translate(19.6678,-13.6786)">
					<title>Sheet.19051</title>
					<path d="M16.79 78.5 L9.64 78.5 L12.62 68.5 C12.68 68.21 12.57 67.93 12.34 67.82 C12.29 67.76 12.17 67.76 12.12
								 67.76 C11.95 67.76 11.78 67.87 11.67 67.99 L0.11 84.89 C0 85.06 0 85.28 0.06 85.45 C0.17 85.62 0.34
								 85.74 0.56 85.74 L7.5 85.74 L4.4 95.91 C4.34 96.19 4.45 96.48 4.68 96.59 C4.73 96.64 4.85 96.64
								 4.9 96.64 C5.07 96.64 5.24 96.53 5.35 96.42 L17.24 79.35 C17.3 79.24 17.36 79.12 17.36 79.01 C17.36
								 78.73 17.08 78.5 16.79 78.5 Z" class="st4"/>
				</g>
			</g>
		</g>
	</g>
</svg>
